X: 933
T: Güle Sorma, O Bilmez...
C: Erol Sayan
O: Turkey
F: http://compmusic.upf.edu/node/140
N: saba--sarki--duyek--gule_sorma--erol_sayan
N: makam= saba
N: form= sarki
N: usul= duyek = 8/4
M: 8/4
L: 1/16
K: C _2/4B _3/4d  
Q: 1/4=140
%%MIDI tuningsystem comma53
cd ed c2 B2 c3G AB c2  | de fg f2 e2 g3e ce g2  | 
w:  ARANAĞME  |   | 
z_1/4b3 _7/8a2 g2 zg2a gf ed  | cf ed cd BA A3G AG A2  | 
w:   |   | 
cd ed c2 B2 c3G AB c2  | de fg f2 e2 g3e ce g2  | 
w:  ARANAĞME  |   | 
z_1/4b3 _7/8a2 g2 zg2a gf ed  | cf ed cd BA A3G AG A2  | 
w:   |   | 
z2 cc cB c2 z2 GG AB c2  | z2 cc cB c2 z2 GG AB c2  | 
w:   |   | 
G2 cc c2 c2 z2 G2 c2 c2  | z2 e4 e2 d4 c4  | \
w:  *  Gü le  sor ma  o  bil mez   |  aş kı  sev dâ  | 
B2 {d}c4 BA zA2B cc BA  | 
w:  yı  *  *  *  *  neş e yi SAZ  | 
G2 cc c2 c2 z2 G2 c2 c2  | z2 e4 e2 d4 c4  | \
w:  *  Gü le  sor ma  o  bil mez   |  aş kı  sev dâ  | 
B2 {d}c4 BA zA2B c4  | 
w:  yı  *  *  *  *  neş e yi  | 
z2 {d}e4 e2 d4 cB c2  | z2 d4 d2 dc3 BA B2  | \
w:  *  Lâ le ye  sor   |  çiğ de me  *  sor   | 
z2 cd c2 d2 dc2B dB BA  | 
w:  mor  *  *  me nek *  *  şe *  ye   | 
A6 B2 cd Bd c4  | z2 {d}e4 e2 d4 cB c2  | \
w:  sor  SAZ  |  *  Lâ le ye  sor   | 
z2 d4 d2 dc3 BA B2  | 
w:  çiğ de me  *  sor   | 
z2 cd c2 d2 dc2B dB BA  | A6 G2 AB cd ef g2  | 
w:  mor  *  *  me nek *  *  şe *  ye   |  sor  SAZ  | 
z2 g4 e2 fg f2 e2 d2  | c2 cd e2 f2 cd3 c2 B2  | \
w:  Neş e li  *  *  ol   |  *  ka ra göz lüm  şi rin  söz lüm   | 
z2 d4 ef ed cd _1/4B4  | 
w:  gel  ba *  na  | 
z2 d4 e2 de d2 cB c2  | z2 c4 d2 c4 BA B2  | \
w:  da i ma *  *  gül   |  şar kı  söy le   | 
z2 c4 BA A8  | 
w:  oy *  *  na   | 
cd ed c2 B2 c3G AB c2  | de fg f2 e2 g3e ce g2  | 
w:  Ne  gü zel  de  oy nar sın  SAZ  |  fı kır  fı kır  kay nar sın  SAZ  | 
z_1/4b3 _7/8a2 g2 zg2a gf ed  | cd ed cc B2 c3G AB c2  | 
w:  Şen  şak rak hem  gü zel *  sin   |  a te şin le  ya kar *  sın  SAZ  | 
cd ed c2 B2 c3G AB c2  | de fg f2 e2 g3e ce g2  | 
w:  Ne  gü zel  de  oy nar sın  SAZ  |  fı kır  fı kır  kay nar sın  SAZ  | 
z_1/4b3 _7/8a2 g2 zg2a gf ed  | cd ed cc BA A8  | \
w:  Şen  şak rak hem  gü zel *  sin   |  a te şin le  ya kar *  *  sın   | 
cd ed c2 B2 c3G AB c2  | 
w:  ARANAĞME  | 
de fg f2 e2 g3e ce g2  | z_1/4b3 _7/8a2 g2 zg2a gf ed  | 
w:   |   | 
cf ed cd BA A3G AG A2  | cd ed c2 B2 c3G AB c2  | 
w:   |  ARANAĞME  | 
de fg f2 e2 g3e ce g2  | z_1/4b3 _7/8a2 g2 zg2a gf ed  | 
w:   |   | 
cf ed cd BA A3G AG A2  | z2 cc cB c2 z2 GG AB c2  | 
w:   |   | 
z2 cc cB c2 z2 GG AB c2  | G2 cc c2 c2 z2 G2 c2 c2  | 
w:   |  *  Gü le  sor ma  o  bil mez   | 
z2 e4 e2 d4 c4  | B2 {d}c4 BA zA2B cc BA  | \
w:  aş kı  sev dâ  |  yı  *  *  *  *  neş e yi SAZ  | 
G2 cc c2 c2 z2 G2 c2 c2  | 
w:  *  Gü le  sor ma  o  bil mez   | 
z2 e4 e2 d4 c4  | B2 {d}c4 BA zA2B c4  | \
w:  aş kı  sev dâ  |  yı  *  *  *  *  neş e yi  | 
z2 {d}e4 e2 d4 cB c2  | z2 d4 d2 dc3 BA B2  | 
w:  *  Lâ le ye  sor   |  çiğ de me  *  sor   | 
z2 cd c2 d2 dc2B dB BA  | A6 B2 cd Bd c4  | \
w:  mor  *  *  me nek *  *  şe *  ye   |  sor  SAZ  | 
z2 {d}e4 e2 d4 cB c2  | 
w:  *  Lâ le ye  sor   | 
z2 d4 d2 dc3 BA B2  | z2 cd c2 d2 dc2B dB BA  | \
w:  çiğ de me  *  sor   |  mor  *  *  me nek *  *  şe *  ye   | 
A6 G2 AB cd ef g2  | 
w:  sor  SAZ  | 
z2 g4 e2 fg f2 e2 d2  | c2 cd e2 f2 cd3 c2 B2  | \
w:  Neş e li  *  *  ol   |  *  ka ra göz lüm  şi rin  söz lüm   | 
z2 d4 ef ed cd _1/4B4  | 
w:  gel  ba *  na  | 
z2 d4 e2 de d2 cB c2  | z2 c4 d2 c4 BA B2  | \
w:  da i ma *  *  gül   |  şar kı  söy le   | 
z2 c4 BA A8  | 
w:  oy *  *  na   | 
cd ed c2 B2 c3G AB c2  | de fg f2 e2 g3e ce g2  | 
w:  Ne  gü zel  de  oy nar sın  SAZ  |  fı kır  fı kır  kay nar sın  SAZ  | 
z_1/4b3 _7/8a2 g2 zg2a gf ed  | cd ed cc B2 c3G AB c2  | 
w:  Şen  şak rak hem  gü zel *  sin   |  a te şin le  ya kar *  sın  SAZ  | 
cd ed c2 B2 c3G AB c2  | de fg f2 e2 g3e ce g2  | 
w:  Ne  gü zel  de  oy nar sın  SAZ  |  fı kır  fı kır  kay nar sın  SAZ  | 
z_1/4b3 _7/8a2 g2 zg2a gf ed  | cd ed cc BA A8  | |


